/* XPM */
static char * udekusu_xpm[] = {
"64 21 2 1",
" 	c #020202",
".	c #FCFCFC",
"................................................................",
"..                                                            ..",
"..                                                            ..",
".. .......................................................... ..",
".. .......................................................... ..",
".. ..........  .............. ....... ....................... ..",
".. ..........  ........      . .....   .......      ......... ..",
".. .......         ................        ...       ........ ..",
".. .......  .....  ................  ...   .......  ......... ..",
".. .......  .....  ..          ...  ....  .......   ......... ..",
".. .......  ....   ......   ...... ....   .......  .......... ..",
".. .............  .......  ............  .......    ......... ..",
".. ............  ........  ..........   .......      ........ ..",
".. ..........    ......   .........    ......   ...   ....... ..",
".. .........   ........  ..........   .......  .....  ....... ..",
".. .......................................................... ..",
".. .......................................................... ..",
".. .......................................................... ..",
"..                                                            ..",
"................................................................",
"................................................................"};
