/* XPM */
static char * udeksdroid_64_xpm[] = {
"64 64 2 1",
" 	c #020202",
".	c #FCFCFC",
"................................................................",
"................................................................",
"................................................................",
"................................................................",
"................................................................",
"................................................................",
".........................    ......    .........................",
".......................     ........     .......................",
".....................   ................   .....................",
"...................   .......... .........   ...................",
"..................  ...........  ...........  ..................",
".................  .......   ..  ............  .................",
"................  .......    ..  .............  ................",
"...............  .....   ..  ..  ..............  ...............",
"..............  .....   .... ..  .....    ......  ..............",
".............  .....    .... ..  ....      ......  .............",
".............  .....     ... ..  ....      ......  .............",
"............  .....  ... ..  ..  ....      .......  ............",
"............ ....    ... ..  .  . ....     ..  ...  ............",
"...........  ...  .. .... .. . .. .....   ...  .... ............",
"...........  ... ....  ..  . . .. .. ........   ...  ...........",
"...........  ... ....   .. ... .. ..  ......    ...  ...........",
"........... ..... ...   ...... .. ...           ...  ...........",
"........... ....    ..  ....   ..   ....        .... ...........",
"..........  ...  ..  ...... ........ ....       .... ...........",
"........... ...  ... .....................      .... ...........",
"........... ...  ... ..    ..........  ...     ..... ...........",
"........... .... .... ....     ..    .....     ....  ...........",
"................    .. ....    ..  ......     ..... ............",
"......... ........   ..   ..   .. ......     ......... .........",
".........   .......   ... ..   .. .....     ........   .........",
".........   .......   ...  .   .. ....     ...... ..   .........",
"..........  ..   .... ...  .   .. ...    ......   ..  ..........",
"..........  ..     ....    .   .....   .....      ..  ..........",
"..........  ..       ....  .   .....  ....        ..  ..........",
"..........  ..  .      .....   .... ....       .  ..  ..........",
"........... ..  ....     ....    .....      ....  .. ...........",
"...........  .   ......    ...  .....    ......   .  ...........",
"...........  .   ........    .. ...    ........   .  ...........",
"...........  ..   .......    ......    .......   ..  ...........",
"...........  ....    .....   ......   .....    ....  ...........",
"............   ....    ...    ....    ...    ....   ............",
".............     ....        ....        ....     .............",
"..................  ....      ....      ....  ..................",
"..................... ....    ....    .... .....................",
"............................  ....  ............................",
".............................  ..  .............................",
"................................................................",
"................................................................",
"................................................................",
"........  .....  ..      ....       .. ....  ...       .........",
"........  .....  .        ..        .  ...  ...        .........",
"........  .....  .  .....  .  .......  ..  ....  ...............",
"........  .....  .  .....  .       ..     .....        .........",
"........  .....  .  .....  .       ..     ......        ........",
"........  .....  .  .....  .  .......  ..  ...........  ........",
"........         .        ..        .  ...  ...         ........",
"..........     ...       ....       .. ....   .        .........",
"................................................................",
"................................................................",
"................................................................",
"................................................................",
"................................................................",
"................................................................"};
