/* XPM */
static char * udekspipe_160_xpm[] = {
"160 160 2 1",
" 	c #010201",
".	c #FDFDFD",
"................................................................................................................................................................",
"................................................................................................................................................................",
"................................................................................................................................................................",
"................................................................................................................................................................",
"................................................................................................................................................................",
"................................................................................................................................................................",
"................................................................................................................................................................",
"................................................................................................................................................................",
"................................................................................................................................................................",
"................................................................................................................................................................",
"................................................................................................................................................................",
"................................................................................................................................................................",
"................................................................................................................................................................",
"................................................................................................................................................................",
"................................................................................................................................................................",
".................................................    ...........................................................................................................",
"..................................................     .........................................................................................................",
"...................................................      .......................................................................................................",
"...................................................       ......................................................................................................",
"....................................................        ....................................................................................................",
".....................................................        ...................................................................................................",
".....................................................         ..................................................................................................",
".....................................................         ..................................................................................................",
"......................................................         .................................................................................................",
"......................................................          ................................................................................................",
"......................................................          ................................................................................................",
"......................................................           ...............................................................................................",
".....................................................            ...............................................................................................",
".....................................................            ...............................................................................................",
".....................................................            ...............................................................................................",
"....................................................             ...............................................................................................",
"...................................................              ...............................................................................................",
"...................................................              ...............................................................................................",
"..................................................              ................................................................................................",
"................................................                ................................................................................................",
"...............................................                .................................................................................................",
"..............................................                ..................................................................................................",
"............................................                 ...................................................................................................",
"...........................................                 ....................................................................................................",
"..........................................                ......................................................................................................",
"........................................                ........................................................................................................",
".......................................               ..........................................................................................................",
"......................................              ............................................................................................................",
".....................................             ..............................................................................................................",
"....................................             ...............................................................................................................",
"...................................            .................................................................................................................",
"...................................           ..................................................................................................................",
"...................................         ......  ............................................................................................................",
"..................................          .....  .............................................................................................................",
"..................................         .....   .............................................................................................................",
"..................................        .....    .............................................................................................................",
"..................................        ....     .............................................................................................................",
"...................................      .....     .............................................................................................................",
"...................................      ....       .........................................................................................  .................",
"....................................     ....        ......................................................................................      ...............",
"....................................     ....         .....................................................................                       ..............",
".....................................    ....          ................................................................                           ..............",
"......................................    ....           ...........................................................                               .............",
"........................................  ....           .........................................................                                 .............",
".........................................  ....           ......................................................                                   .............",
"................................................          ....................................................                  .............      .............",
"................................................           ..................................................                .................    ..............",
".................................................          ................................................               ......................................",
".................................................         ................................................               .......................................",
".................................................         ..............................................               .........................................",
".................................................        ..............................................               ..........................................",
".................................................       ..............................................               ...........................................",
"................................................      ...............................................              .............................................",
"...............................................     ...............................................               ..............................................",
"..............................................  ..................................................               ...............................................",
".................................................................................................                ...............................................",
"................................................................................................                ................................................",
"....................................                    .......................................                .................................................",
"................................                            ...................................               ..................................................",
"..............................                               .................................               ...................................................",
"...............................                             .................................                ...................................................",
"...................................                    .......................................              ....................................................",
"..........................  ...................................  ...............................           .....................................................",
"..........................    ...............................    ......................... .......         .....................................................",
"..........................       .........................       ........................    .......      ......................................................",
"..........................            .............              ........................      ......    .......................................................",
"..........................                                       .......................        ......   .......................................................",
".........................    ..                                   .....................           ..... ........................................................",
".........................    ......                               ....................             .............................................................",
".........................    ......                               ...................               ............................................................",
".........................    ......                               ..................                 ...........................................................",
".........................    ......                               .................                  ...........................................................",
".........................    ......                               ................                   ...........................................................",
".........................    ......                                ..............                   ............................................................",
".........................    ......                                ............                    .............................................................",
".........................    ......                                 ..........                     .............................................................",
".........................    ......                                 ........                      ..............................................................",
".........................    ......                                   ....                       ...............................................................",
"..........................    ......                                                             ...............................................................",
"..........................    ......                                                            ................................................................",
"..........................    ......                                                           .................................................................",
"..........................    ......                                                          ..................................................................",
"..........................     .....                                                          ..................................................................",
"...........................    ......                                                        ...................................................................",
"...........................    ......                                                       ....................................................................",
"...........................     .....                                                      .....................................................................",
"............................    ......                                                    ......................................................................",
"............................     .....                                                   .......................................................................",
"............................     .....                                                   .......................................................................",
".............................     .....                                                 ........................................................................",
".............................      ....                                                .........................................................................",
"..............................     .....                                              ..........................................................................",
"...............................     .....                                            ...........................................................................",
"...............................      ....                                          .............................................................................",
"................................      ....                                        ..............................................................................",
".................................      ....                                      ...............................................................................",
"..................................       ...                                    ................................................................................",
"...................................        .                                  ..................................................................................",
"....................................                                         ...................................................................................",
"......................................                                     .....................................................................................",
".......................................                                  .......................................................................................",
".........................................                             ..........................................................................................",
"...........................................                        .............................................................................................",
"...............................................                 ................................................................................................",
"................................................................................................................................................................",
"................................................................................................................................................................",
"................................................................................................................................................................",
"................................................................................................................................................................",
"................................................................................................................................................................",
"................................................................................................................................................................",
"..............      ............       ...                   ..........                    ....      ..........        ....                       ..............",
"..............      ............       ...                      .....                      ....      ........         ....                        ..............",
"..............      ............       ...                       ....                      ....      .......         ....                         ..............",
"..............      ............       ...                       ....                      ....      ......        ......                         ..............",
"..............      ............       ...                        ...                      ....      .....        ......                          ..............",
"..............      ............       ...       ..........       ...      ....................      ....        .......       .................................",
"..............      ............       ...       ...........      ...      ....................      ..         ........       .................................",
"..............      ............       ...       ...........      ...       ...................      .         .........        ................................",
"..............      ............       ...       ...........      ...                    ......              ...........                        ................",
"..............      ............       ...       ...........      ...                    ......             .............                         ..............",
"..............      ............       ...       ...........      ...                    ......             .............                         ..............",
"..............      ............       ...       ...........      ...                    ......              .............                        ..............",
"..............      ............       ...       ...........      ...       ...................               ..............                      ..............",
"..............      ............       ...       ...........      ...      ....................      ..        ............................       ..............",
"..............      ............       ...       ..........       ...      ....................      ...         ..........................       ..............",
"..............       ..........        ...       .........        ...       ...................      ....         .........................       ..............",
"..............                        ....                        ...                      ....      .....         ......                         ..............",
"...............                       ....                       ....                      ....      ......         .....                         ..............",
"...............                      .....                      .....                      ....      ........        ....                         ..............",
".................                   ......                     .......                     ....      .........        ...                        ...............",
"....................             ...............................................................................................................................",
"................................................................................................................................................................",
"................................................................................................................................................................",
"................................................................................................................................................................",
"................................................................................................................................................................",
"................................................................................................................................................................",
"................................................................................................................................................................",
"................................................................................................................................................................",
"................................................................................................................................................................",
"................................................................................................................................................................",
"................................................................................................................................................................",
"................................................................................................................................................................",
"................................................................................................................................................................",
"................................................................................................................................................................",
"................................................................................................................................................................"};
