/* XPM */
static char * udekspipe_64_xpm[] = {
"64 64 2 1",
" 	c #010201",
".	c #FDFDFD",
"................................................................",
"................................................................",
"................................................................",
"................................................................",
"................................................................",
"................................................................",
".................... ...........................................",
".....................  .........................................",
".....................   ........................................",
"......................   .......................................",
"......................    ......................................",
".....................     ......................................",
".....................     ......................................",
"....................     .......................................",
"...................      .......................................",
".................       ........................................",
"................      ..........................................",
"...............     ............................................",
"..............    ..............................................",
"..............   ...............................................",
"..............   .. ............................................",
"..............  ..   ...........................................",
"............... ..    ...........................         ......",
"................ ..    .......................             .....",
"...................    .....................      ....... ......",
"....................   ...................      ................",
"....................  ...................     ..................",
"................... ....................     ...................",
".......................................      ...................",
".............           ..............      ....................",
"..............        ................     .....................",
"........... ............. ..............  ......................",
"..........                .........   ... ......................",
".......... ...            ........     .........................",
".......... ...            ........      ........................",
".......... ...             .....        ........................",
"..........  ..             ....        .........................",
"..........  ..                        ..........................",
"........... ...                       ..........................",
"........... ...                      ...........................",
"...........  ..                     ............................",
"............ ...                   .............................",
"............  ..                  ..............................",
".............  ..                ...............................",
"..............  ..              ................................",
"...............               ..................................",
".................           ....................................",
"....................    ........................................",
"................................................................",
"................................................................",
"......  .....  ..        ...        ..  ....   ..         ......",
"......  .....  ..         ..        ..  ...   ..          ......",
"......  .....  ..  .....  ..  ........  ..   ...   .............",
"......  .....  ..  .....  ..       ...     .....         .......",
"......  .....  ..  .....  ..       ...     ......         ......",
"......  .....  ..  .....  ..  ........  ..  ............  ......",
"......         ..         ..        ..  ...   ...         ......",
".......       ...        ...        ..  ....   ..         ......",
"................................................................",
"................................................................",
"................................................................",
"................................................................",
"................................................................",
"................................................................"};
