/* XPM */
static char * udeksdroid_160_xpm[] = {
"160 160 2 1",
" 	c #020202",
".	c #FCFCFC",
"................................................................................................................................................................",
"................................................................................................................................................................",
"................................................................................................................................................................",
"................................................................................................................................................................",
"................................................................................................................................................................",
"................................................................................................................................................................",
"................................................................................................................................................................",
"................................................................................................................................................................",
"................................................................................................................................................................",
"................................................................................................................................................................",
"................................................................................................................................................................",
"................................................................................................................................................................",
"................................................................................................................................................................",
"................................................................................................................................................................",
"......................................................................    .....  .....     .....................................................................",
".................................................................         .....  .....         .................................................................",
".............................................................             .....  .....             .............................................................",
"...........................................................               .....  .....               ...........................................................",
"........................................................                  .....  .....                  ........................................................",
"......................................................              ...........  ...........              ......................................................",
"....................................................            ...............  ...............            ....................................................",
"..................................................           ..................  ..................           ..................................................",
".................................................          ....................  ....................          .................................................",
"...............................................          .....................    .....................          ...............................................",
"..............................................         .......................    .......................         ..............................................",
".............................................        .........................    .........................        .............................................",
"...........................................        ...................    ....    ...........................       ............................................",
"..........................................        .................       ....    ............................        ..........................................",
".........................................       ..................        ....    .............................        .........................................",
"........................................       .................          ....    ...............................       ........................................",
".......................................       ..................          ....    ................................       .......................................",
"......................................       ..................           ....    .................................      .......................................",
".....................................       ............                  ....     .................................      ......................................",
"....................................       ............                   ...      ..................................      .....................................",
"....................................      ...........          .....      ...      ..............       ..............      ....................................",
"...................................      ...........          .......     ...      ............           .............      ...................................",
"..................................      ............         ........     ...      ...........             ............      ...................................",
".................................      ............          .........   ....      ...........              ............      ..................................",
".................................      ............          .........   ....      ..........               .............      .................................",
"................................      ............           .........   ....      ..........               ..............     .................................",
"................................     .............            .......    ....       ........                 .............      ................................",
"...............................      .............             .....     ...        ........                 ..............     ................................",
"...............................     ..............   .....      ...      ...        ........                 ...............     ...............................",
"..............................     ...........      .......     ...      ...    .   .........                ...............     ...............................",
"..............................     .........        ........    ...      ...   ..   .........               ....   ..........     ..............................",
".............................     .........         ........    ...      ...   ..   .........               ...     .........     ..............................",
".............................     ........          ........    ...      ...   ..   ..........             ....      ........      .............................",
"............................      .......            .......    ....     ...   ..   ...........           .....       ........     .............................",
"............................     ........            ........    ....    ...   ..    ...........         ......        .......     .............................",
"............................     .......     .....       .....    ....  ...    ..    .............     .........       ........     ............................",
"...........................      .......    .......       .....    ...  ...    ..    ....  .....................       ........     ............................",
"...........................     ........    ........       ....    ...  ...    ..    ...     ...................        .......     ............................",
"...........................     ........    ........        ....   ...  ...    ...   ...      .................         ........    ............................",
"...........................     ........    ........        ....   ...  ...   ....   ....       ..............          ........     ...........................",
"...........................     ........    ........        ....   ... ....   ....    ....         .........            ........     ...........................",
"..........................     ..........   ........        ....   .......    ....    ......                             .......     ...........................",
"..........................     ..........    ........       ....   .......    ....    .......                            .......     ...........................",
"..........................     ..........         ....      .... .......      ....      .......                          .......     ...........................",
"..........................     .........           ....     ..........        ....        .......                        .......     ...........................",
"..........................     ........             ....    ........          ....          ........                     ........    ...........................",
"..........................     ........              ....  .......            ....            ........                   ........     ..........................",
"..........................     .......      ....      ... ......      ...................       .......                 .........     ..........................",
"..........................     .......     ......     ... ..............................................                .........     ..........................",
"..........................     .......    ........    ... ..............................................                .........     ..........................",
"..........................     .......    ........    ...    ...................................... ....                .........    ...........................",
"..........................     .......    ........    ...          ..........................     ......               .........     ...........................",
"..........................     .......    ........    ....              ................         .......               .........     ...........................",
"..........................     .......     ........   .....                  ......            .........              ..........     ...........................",
"..........................     .......      ........   .........             ......          ...........              ..........     ...........................",
"...........................     .......         .....   .........            ......         ...........              ...........     ...........................",
"............................    .......          .....   .........           ......       ............              ............   .............................",
"..............................  ........          .....   .........           .....     ..............              ............ ...............................",
".........................................          .....       .....          ....     ..............              .............................................",
"......................   ..................         .....       .....         ....     .............              .....................   ......................",
"......................     ..................        .....       .....        ....    .............              ....................     ......................",
".......................      .................        .......     ....        ....    ............              ...................       ......................",
".......................       ................         .......     ...        ....    ...........             ....................       .......................",
".......................       ... .............        .......     ...        ....    ..........             ................. ...       .......................",
".......................       ....  ...........        ........    ...        ....   ..........             ...............    ...       .......................",
".......................       ....    ..........       .......     ...        ....   .........            ..............      ....       .......................",
"........................      ....       ........       ......     ...        ....   ........            .............        ....       .......................",
"........................      ....         ........     .....      ...        ....   .......           .............          ....      ........................",
"........................       ...           ........              ...        ....  .......          ............             ....      ........................",
"........................       ...             ........            ...         ..   .......         ...........               ...       ........................",
".........................      ...               ........          ...         ..   ......        ...........                 ...       ........................",
".........................      ...                  .......        ...         ..   .....       ..........                    ...      .........................",
".........................      ...                    ........     ...         ..  .....       .........                      ...      .........................",
".........................      ....                     ........   ...         ..  .....     .........                        ...      .........................",
".........................      ....                       ........ ...         ..  ....     ........                         ....      .........................",
"..........................     ....     ....                ..........         ..  ....   ........                  ....     ....     ..........................",
"..........................     ....      ......               ........         .. ....   .......                 ......      ....     ..........................",
"..........................      ...      .........              ........       .. .... .......                .........      ....     ..........................",
"..........................      ...      ............             .......      .. ...........              ............      ...      ..........................",
"...........................     ...       ..............            .......    .. .........             ..............       ...      ..........................",
"...........................     ...       .................           ......      ........           .................       ...     ...........................",
"...........................     ....       ...................         ......    .......          ...................        ...     ...........................",
"...........................     ....       ...................           ....    ......           ...................       ....     ...........................",
"...........................     ....        ...................          .....   ......          ...................        ....     ...........................",
"............................    ....          .................          .....   ......          .................          ....    ............................",
"............................    .....           ................         ...... ......          ................           .....    ............................",
"............................     .......           .............          ..... ......          .............           .......     ............................",
"............................     .........           ...........          ............          ...........           .........     ............................",
".............................    ............           .........         ............         .........           ............     ............................",
".............................        ..........            ......         ............         ......            ..........        .............................",
".............................           .........            .....        ...........         .....            .........           .............................",
".............................              .........            ..         ..........         ..            .........              .............................",
".................................             ........                     ..........                     ........             .................................",
"......................................          ........                   ..........                   ........          ......................................",
"..........................................         .......                 .........                  .......         ..........................................",
".............................................        .......               .........               ........        .............................................",
".................................................      .......              ........             ........      .................................................",
"....................................................     .......            ........            .......     ....................................................",
"......................................................     .......          ........          .......     ......................................................",
".........................................................   ........        .......         .......    .........................................................",
"............................................................  ........       ......       ........  ............................................................",
"..............................................................  .......      ......      .......  ..............................................................",
".........................................................................    ......    .........................................................................",
"..........................................................................   ......   ..........................................................................",
"...........................................................................  .....  ............................................................................",
"............................................................................. .... .............................................................................",
"................................................................................................................................................................",
"................................................................................................................................................................",
"................................................................................................................................................................",
"................................................................................................................................................................",
"................................................................................................................................................................",
"................................................................................................................................................................",
"....................      ...........      ...                 ........                   ...      ........       ....                     .....................",
"....................      ...........      ...                   .....                    ...      .......       ....                      .....................",
"....................      ...........      ...                    ....                    ...      .....        .....                      .....................",
"....................      ...........      ...                     ...                    ...      ....        ......                      .....................",
"....................      ...........      ...     ..........      ...      .................      ...        .......      .....................................",
"....................      ...........      ...     ..........      ...      .................      ..       .........      .....................................",
"....................      ...........      ...     ..........      ...      .................      .       ..........      .....................................",
"....................      ...........      ...     ..........      ...                  .....             ...........                    .......................",
"....................      ...........      ...     ..........      ...                  .....            ............                      .....................",
"....................      ...........      ...     ..........      ...                  .....             ............                     .....................",
"....................      ...........      ...     ..........      ...                  .....              ............                     ....................",
"....................      ...........      ...     ..........      ...      .................      .        .........................       ....................",
"....................      ...........      ...     ..........      ...      .................      ..        .........................      ....................",
"....................      ...........      ...     ..........      ...      .................      ...        ........................      ....................",
"....................                      ....                     ...                    ...      ....        ......                       ....................",
".....................                     ....                    ....                    ...      .....        .....                      .....................",
".....................                    .....                   .....                    ...      ......        ....                      .....................",
".......................                 ......                  .......                   ...      .......        ...                     ......................",
".........................            .........               ...........                  ....     .........       ...                  ........................",
"................................................................................................................................................................",
"................................................................................................................................................................",
"................................................................................................................................................................",
"................................................................................................................................................................",
"................................................................................................................................................................",
"................................................................................................................................................................",
"................................................................................................................................................................",
"................................................................................................................................................................",
"................................................................................................................................................................",
"................................................................................................................................................................",
"................................................................................................................................................................",
"................................................................................................................................................................",
"................................................................................................................................................................",
"................................................................................................................................................................",
"................................................................................................................................................................"};
